src/topics/icons/pivotal_tracker.svg

<svg height="256" preserveAspectRatio="xMidYMid" viewBox="0 0 256 256" width="256" xmlns="http://www.w3.org/2000/svg"><path d="m94.0114747 58.8463838 28.5530503 49.4519592c4.53301-1.212767 9.482344-.858505 13.981738 1.246384l15.010909-25.9982219-25.090586-43.4450102-32.7498991 18.9129697h.0025858zm-43.044202 63.9715552h57.1190303c.455111-1.698909 1.111919-3.374545 2.032485-4.964848 1.551515-2.691879 3.633131-4.876929 6.022465-6.544808l-15.008324-25.9904648h-50.1811714v37.8233538h.0155151zm94.6656973 15.54101c-1.556687 2.691879-3.625374 4.869172-6.009536 6.534465l15.018667 26.011152h50.168242v-37.49495h-57.142303c-.460282 1.698909-1.122262 3.35903-2.03507 4.949333zm-3.278869-24.74408c3.465051 3.449535 5.52598 7.979959 5.939717 12.730182h30.011475l25.090586-43.4475965-32.470626-18.7526464zm-57.5224242 78.467878 28.5711512-49.490747c-3.449535-3.454707-5.510464-7.972202-5.934545-12.706909h-30.0269901l-25.0905858 43.426909 32.7421414 18.925899zm76.9215352 5.285495-28.547879-49.454545c-4.530424 1.223111-9.484929.879192-13.989495-1.238626l-15.01608 26.00598 25.07507 43.434666 32.752485-18.905212z" fill="#ed7d1a"/><path d="m127.888808.23272727c-70.5163636 0-127.888808 57.35692933-127.888808 127.86294973 0 70.526707 57.3724444 127.904323 127.888808 127.904323 70.511192 0 127.870707-57.377616 127.870707-127.904323 0-70.5060204-57.359515-127.86294973-127.870707-127.86294973zm0 25.88961613c56.32 0 101.975919 45.6507475 101.975919 101.9733336 0 56.338101-45.655919 102.012121-101.975919 102.012121-56.3277575 0-101.9914343-45.67402-101.9914343-102.012121 0-56.3225861 45.6636768-101.9733336 101.9914343-101.9733336z" fill="#5282b0"/></svg>

<?xml version="1.0" encoding="UTF-8" standalone="no"?>
<svg width="256px" height="256px" viewBox="0 0 256 256" version="1.1" xmlns="http://www.w3.org/2000/svg" xmlns:xlink="http://www.w3.org/1999/xlink" preserveAspectRatio="xMidYMid">
	<g>
		<path d="M94.0114747,58.8463838 L122.564525,108.298343 C127.097535,107.085576 132.046869,107.439838 136.546263,109.544727 L151.557172,83.5465051 L126.466586,40.1014949 L93.7166869,59.0144646 L93.7192727,59.0144646 L94.0114747,58.8463838 Z M50.9672727,122.817939 L108.086303,122.817939 C108.541414,121.11903 109.198222,119.443394 110.118788,117.853091 C111.670303,115.161212 113.751919,112.976162 116.141253,111.308283 L101.132929,85.3178182 L50.9517576,85.3178182 L50.9517576,123.141172 L50.9672727,123.141172 L50.9672727,122.817939 Z M145.63297,138.358949 C144.076283,141.050828 142.007596,143.228121 139.623434,144.893414 L154.642101,170.904566 L204.810343,170.904566 L204.810343,133.409616 L147.66804,133.409616 C147.207758,135.108525 146.545778,136.768646 145.63297,138.358949 Z M142.354101,113.614869 C145.819152,117.064404 147.880081,121.594828 148.293818,126.345051 L178.305293,126.345051 L203.395879,82.8974545 L170.925253,64.1448081 L142.354101,113.614869 Z M84.8316768,192.082747 L113.402828,142.592 C109.953293,139.137293 107.892364,134.619798 107.468283,129.885091 L77.4412929,129.885091 L52.3507071,173.312 L85.0928485,192.237899 L84.8316768,192.082747 Z M161.753212,197.368242 L133.205333,147.913697 C128.674909,149.136808 123.720404,148.792889 119.215838,146.675071 L104.199758,172.681051 L129.274828,216.115717 L162.027313,197.210505 L161.753212,197.368242 Z" fill="#ed7d1a"></path>
		<path d="M127.888808,0.232727273 C57.3724444,0.232727273 0,57.5896566 0,128.095677 C0,198.622384 57.3724444,256 127.888808,256 C198.4,256 255.759515,198.622384 255.759515,128.095677 C255.759515,57.5896566 198.4,0.232727273 127.888808,0.232727273 L127.888808,0.232727273 Z M127.888808,26.1223434 C184.208808,26.1223434 229.864727,71.7730909 229.864727,128.095677 C229.864727,184.433778 184.208808,230.107798 127.888808,230.107798 C71.5610505,230.107798 25.8973737,184.433778 25.8973737,128.095677 C25.8973737,71.7730909 71.5610505,26.1223434 127.888808,26.1223434 L127.888808,26.1223434 Z" fill="#5282b0"></path>
	</g>
</svg>
